Obsidian-SemiLight/actions/16s/im-user-away.svg

<svg viewBox="0 0 16 16" xmlns="http://www.w3.org/2000/svg"><g fill="#fdbc4b" transform="translate(-421.71 -531.79)"><path d="m8 9a5 4.5 0 0 0 -5 4.5 5 4.5 0 0 0 .033203.5h9.929797a5 4.5 0 0 0 .037-.5 5 4.5 0 0 0 -5-4.5m0 1a4 3.5 0 0 1 3.955078 3h-7.910078a4 3.5 0 0 1 3.955-3" transform="translate(421.71 531.79)"/><path d="m433.71 532.79-7 4 2 1 1 3 1-2 2 1z" fill-rule="evenodd"/></g></svg>

<svg xmlns="http://www.w3.org/2000/svg" viewBox="0 0 16 16">
 <g fill="#fdbc4b" transform="translate(-421.71-531.79)">
  <path d="M8 9A5 4.5 0 0 0 3 13.5 5 4.5 0 0 0 3.033203 14H12.963A5 4.5 0 0 0 13 13.5 5 4.5 0 0 0 8 9M8 10A4 3.5 0 0 1 11.955078 13H4.045A4 3.5 0 0 1 8 10" transform="translate(421.71 531.79)"/>
  <path fill-rule="evenodd" d="m433.71 532.79l-7 4 2 1 1 3 1-2 2 1z"/>
 </g>
</svg>
